X:1
T:Silver Street, SM
T:Silver Street, SM
T:Isaac Smith, circa 1770
T:Public Domain Courtesy of the Cyber Hymnal™
C:Isaac Smith, circa 1770
Z:Public Domain
Z:Courtesy of the Cyber Hymnal™
%%score ( 1 2 ) ( 3 4 )
L:1/8
Q:1/4=115
M:4/4
K:Bb
V:1 treble 
V:2 treble 
V:3 bass 
V:4 bass 
V:1
 [DFB]2 FF [B,D]2 [A,F]2 | [DB]6 [Fd]2 | [Fc]2 F2 (BG) (F=E) | [CF]6 [DF]2 | %4
 [DB]2 [Fd]2 [DB]3 [DF] | (GF) ([EG][FB]) [FA]3 F | ([EG][FA]) ([FB][Gc]) [Fd]2 [Ec]2 | [DB]8 |] %8
V:2
 x2 FF x4 | x8 | x2 F2 D2 C2 | x8 | x8 | E2 x4 F x | x8 | x8 |] %8
V:3
 [B,,F,B,]2 F,F, [B,,D,F,]2 [A,,F,]2 | [G,,G,B,]6 [B,,B,]2 | [A,,C]2 [D,A,]2 (G,B,) (A,G,) | %3
 [F,,F,A,]6 [B,,B,]2 | [B,,F,]2 [B,,B,]2 [B,,F,]3 [B,,B,] | B,2 ([C,E][B,,D]) [F,C]3 [D,B,] | %6
 (B,C) B,2 [F,B,]2 [F,,F,A,]2 | [B,,B,]8 |] %8
V:4
 x2 F,F, x4 | x8 | x4 B,,2 C,2 | x8 | x8 | (E,D,) x6 | E,2 (D,E,) x4 | x8 |] %8

